X: 114
T: Traditional Reel
T: Reel, D
L: 1/16
M: C|
K: D
|: a2g2| f2d2e2c2 d4A2G2| F2G2A2B2 (3=c2B2A2 B2G2| A2d2d2e2 f2d2e2d2| c2d2e2f2 g4a2g2| 
f2d2e2c2 d4A2G2| F2G2A2B2 (3=c2B2A2 B2G2| A2d2d2e2 f2d2e2d2| A2d2d2c2 d4:| 
|: a2g2| f2e2f2g2 a6f2| a2b2a2g2 f2d2d2e2| f2e2f2g2 a4f2a2| g2f2e2f2 g4a2g2| 
f2e2f2g2 a6f2| a2b2a2g2 f2d2d2f2| b2g2a2f2 g2f2e2d2| c2d2e2f2 g4:| 
D: Wendy MacIsaac, That's What You Get, WMT004 (second on Set 4)
